P3
83 16
255
255 255 255 255 255 255 255 255 255 255 255 255 255 255 255 255 255 255 255 255 255 255 255 255 255 255 255 255 255 255 255 255 255 255 255 255 255 255 255 255 255 255 255 255 255 255 255 255 255 255 255 255 255 255 255 255 255 255 255 255 255 255 255 255 255 255 255 255 255 255 255 255 255 255 255 255 255 255 255 255 255 255 255 255 255 255 255 255 255 255 255 255 255 255 255 255 255 255 255 255 255 255 255 255 255 255 255 255 255 255 255 255 255 255 255 255 255 255 255 255 255 255 255 255 255 255 255 255 255 255 255 255 255 255 255 255 255 255 255 255 255 255 255 255 255 255 255 255 255 255 255 255 255 255 255 255 255 255 255 255 255 255 255 255 255 255 255 255 255 255 255 255 255 255 255 255 255 255 255 255 255 255 255 255 255 255 255 255 255 255 255 255 255 255 255 255 255 255 255 255 255 255 255 255 255 255 255 255 255 255 255 255 255 255 255 255 255 255 255 255 255 255 255 255 255 255 255 255 255 255 255 255 255 255 224 224 224 110 110 110 255 255 255 255 255 255 255 255 255 
255 255 255 255 255 255 255 255 255 255 255 255 255 255 255 255 255 255 255 255 255 255 255 255 255 255 255 255 255 255 255 255 255 255 255 255 255 255 255 255 255 255 255 255 255 255 255 255 255 255 255 255 255 255 255 255 255 255 255 255 255 255 255 255 255 255 255 255 255 255 255 255 255 255 255 255 255 255 255 255 255 255 255 255 255 255 255 255 255 255 255 255 255 255 255 255 255 255 255 255 255 255 255 255 255 255 255 255 255 255 255 255 255 255 255 255 255 255 255 255 255 255 255 255 255 255 255 255 255 255 255 255 255 255 255 255 255 255 255 255 255 255 255 255 255 255 255 255 255 255 255 255 255 255 255 255 255 255 255 255 255 255 255 255 255 255 255 255 255 255 255 255 255 255 255 255 255 255 255 255 255 255 255 255 255 255 255 255 255 255 255 255 255 255 255 244 244 244 206 206 206 200 200 200 222 222 222 255 255 255 255 255 255 255 255 255 238 238 238 182 182 182 155 155 155 170 170 170 211 211 211 255 255 255 224 224 224 110 110 110 255 255 255 255 255 255 255 255 255 
255 255 255 255 255 255 255 255 255 255 255 255 255 255 255 255 255 255 255 255 255 255 255 255 255 255 255 255 255 255 255 255 255 255 255 255 255 255 255 255 255 255 255 255 255 255 255 255 255 255 255 255 255 255 255 255 255 255 255 255 255 255 255 255 255 255 255 255 255 255 255 255 255 255 255 255 255 255 255 255 255 255 255 255 255 255 255 255 255 255 255 255 255 255 255 255 255 255 255 255 255 255 255 255 255 255 255 255 255 255 255 255 255 255 255 255 255 255 255 255 255 255 255 255 255 255 255 255 255 255 255 255 255 255 255 255 255 255 255 255 255 255 255 255 255 255 255 255 255 255 255 255 255 255 255 255 255 255 255 255 255 255 255 255 255 255 255 255 255 255 255 255 255 255 255 255 255 255 255 255 255 255 255 255 255 255 255 255 255 242 242 242 70  70  70  40  40  40  40  40  40  40  40  40  126 126 126 255 255 255 255 255 255 198 198 198 59  59  59  40  40  40  40  40  40  40  40  40  40  40  40  119 119 119 224 224 224 110 110 110 255 255 255 255 255 255 255 255 255 
255 255 255 255 255 255 255 255 255 255 255 255 255 255 255 255 255 255 255 255 255 255 255 255 255 255 255 255 255 255 255 255 255 255 255 255 255 255 255 255 255 255 255 255 255 255 255 255 255 255 255 87  87  87  40  40  40  83  83  83  255 255 255 255 255 255 255 255 255 255 255 255 255 255 255 255 255 255 255 255 255 255 255 255 255 255 255 255 255 255 255 255 255 255 255 255 255 255 255 255 255 255 255 255 255 255 255 255 255 255 255 255 255 255 255 255 255 255 255 255 255 255 255 255 255 255 255 255 255 255 255 255 255 255 255 255 255 255 255 255 255 255 255 255 255 255 255 255 255 255 255 255 255 255 255 255 255 255 255 255 255 255 255 255 255 255 255 255 255 255 255 255 255 255 255 255 255 255 255 255 255 255 255 255 255 255 255 255 255 242 242 242 93  93  93  63  63  63  40  40  40  40  40  40  126 126 126 255 255 255 238 238 238 53  53  53  40  40  40  40  40  40  40  40  40  40  40  40  40  40  40  119 119 119 224 224 224 110 110 110 255 255 255 255 255 255 255 255 255 
255 255 255 255 255 255 211 211 211 93  93  93  93  93  93  93  93  93  188 188 188 109 109 109 148 148 148 168 168 168 100 100 100 93  93  93  106 106 106 143 143 143 204 204 204 255 255 255 143 143 143 40  40  40  40  40  40  50  50  50  93  93  93  185 185 185 255 255 255 255 255 255 255 255 255 255 255 255 182 182 182 108 108 108 128 128 128 173 173 173 93  93  93  93  93  93  96  96  96  200 200 200 107 107 107 93  93  93  99  99  99  134 134 134 182 182 182 254 254 254 209 209 209 93  93  93  93  93  93  93  93  93  216 216 216 122 122 122 107 107 107 194 194 194 226 226 226 126 126 126 109 109 109 179 179 179 255 255 255 255 255 255 219 219 219 140 140 140 103 103 103 118 118 118 175 175 175 252 252 252 255 255 255 255 255 255 255 255 255 255 255 255 255 255 255 133 133 133 40  40  40  40  40  40  126 126 126 255 255 255 146 146 146 40  40  40  40  40  40  57  57  57  218 218 218 245 245 245 199 199 199 186 186 186 224 224 224 110 110 110 255 255 255 255 255 255 255 255 255 
255 255 255 255 255 255 197 197 197 40  40  40  40  40  40  40  40  40  44  44  44  40  40  40  113 113 113 100 100 100 40  40  40  40  40  40  40  40  40  40  40  40  41  41  41  219 219 219 113 113 113 40  40  40  40  40  40  40  40  40  40  40  40  163 163 163 255 255 255 255 255 255 255 255 255 201 201 201 40  40  40  40  40  40  40  40  40  44  44  44  40  40  40  40  40  40  43  43  43  153 153 153 40  40  40  40  40  40  40  40  40  40  40  40  40  40  40  166 166 166 193 193 193 40  40  40  40  40  40  40  40  40  47  47  47  40  40  40  40  40  40  53  53  53  66  66  66  40  40  40  40  40  40  40  40  40  225 225 225 202 202 202 41  41  41  40  40  40  63  63  63  43  43  43  40  40  40  144 144 144 255 255 255 255 255 255 255 255 255 255 255 255 255 255 255 133 133 133 40  40  40  40  40  40  126 126 126 255 255 255 115 115 115 40  40  40  40  40  40  73  73  73  91  91  91  49  49  49  104 104 104 238 238 238 224 224 224 110 110 110 255 255 255 255 255 255 255 255 255 
255 255 255 255 255 255 240 240 240 82  82  82  40  40  40  40  40  40  80  80  80  136 136 136 158 158 158 139 139 139 146 146 146 188 188 188 119 119 119 40  40  40  40  40  40  170 170 170 199 199 199 40  40  40  40  40  40  72  72  72  200 200 200 231 231 231 255 255 255 255 255 255 255 255 255 143 143 143 40  40  40  40  40  40  123 123 123 120 120 120 40  40  40  40  40  40  128 128 128 177 177 177 129 129 129 186 186 186 154 154 154 40  40  40  40  40  40  117 117 117 239 239 239 80  80  80  40  40  40  40  40  40  164 164 164 77  77  77  40  40  40  40  40  40  142 142 142 99  99  99  40  40  40  40  40  40  191 191 191 113 113 113 40  40  40  40  40  40  177 177 177 109 109 109 40  40  40  68  68  68  255 255 255 255 255 255 255 255 255 255 255 255 255 255 255 133 133 133 40  40  40  40  40  40  126 126 126 255 255 255 94  94  94  40  40  40  40  40  40  40  40  40  40  40  40  40  40  40  40  40  40  93  93  93  224 224 224 110 110 110 255 255 255 255 255 255 255 255 255 
255 255 255 255 255 255 255 255 255 96  96  96  40  40  40  40  40  40  231 231 231 255 255 255 255 255 255 220 220 220 120 120 120 83  83  83  48  48  48  40  40  40  40  40  40  160 160 160 227 227 227 40  40  40  40  40  40  83  83  83  255 255 255 255 255 255 255 255 255 255 255 255 255 255 255 126 126 126 40  40  40  40  40  40  189 189 189 186 186 186 40  40  40  40  40  40  156 156 156 247 247 247 136 136 136 91  91  91  57  57  57  40  40  40  40  40  40  107 107 107 255 255 255 93  93  93  40  40  40  40  40  40  255 255 255 123 123 123 40  40  40  40  40  40  220 220 220 156 156 156 40  40  40  40  40  40  186 186 186 87  87  87  40  40  40  40  40  40  40  40  40  40  40  40  40  40  40  44  44  44  255 255 255 255 255 255 255 255 255 255 255 255 255 255 255 133 133 133 40  40  40  40  40  40  126 126 126 255 255 255 113 113 113 40  40  40  40  40  40  104 104 104 236 236 236 70  70  70  40  40  40  40  40  40  201 201 201 110 110 110 255 255 255 255 255 255 255 255 255 
255 255 255 255 255 255 255 255 255 96  96  96  40  40  40  40  40  40  248 248 248 255 255 255 255 255 255 77  77  77  40  40  40  80  80  80  160 160 160 40  40  40  40  40  40  160 160 160 231 231 231 40  40  40  40  40  40  66  66  66  251 251 251 255 255 255 255 255 255 255 255 255 255 255 255 136 136 136 40  40  40  40  40  40  169 169 169 165 165 165 40  40  40  40  40  40  156 156 156 130 130 130 40  40  40  45  45  45  192 192 192 43  43  43  40  40  40  107 107 107 255 255 255 93  93  93  40  40  40  40  40  40  255 255 255 123 123 123 40  40  40  40  40  40  220 220 220 156 156 156 40  40  40  40  40  40  186 186 186 102 102 102 40  40  40  40  40  40  207 207 207 255 255 255 255 255 255 240 240 240 255 255 255 255 255 255 255 255 255 255 255 255 255 255 255 133 133 133 40  40  40  40  40  40  126 126 126 255 255 255 139 139 139 40  40  40  40  40  40  93  93  93  251 251 251 70  70  70  40  40  40  40  40  40  204 204 204 110 110 110 255 255 255 255 255 255 255 255 255 
255 255 255 255 255 255 197 197 197 40  40  40  40  40  40  40  40  40  40  40  40  231 231 231 255 255 255 45  45  45  40  40  40  53  53  53  67  67  67  40  40  40  40  40  40  46  46  46  252 252 252 46  46  46  40  40  40  40  40  40  40  40  40  146 146 146 255 255 255 255 255 255 255 255 255 177 177 177 40  40  40  40  40  40  40  40  40  40  40  40  40  40  40  40  40  40  156 156 156 99  99  99  40  40  40  40  40  40  80  80  80  40  40  40  40  40  40  40  40  40  159 159 159 40  40  40  40  40  40  40  40  40  121 121 121 40  40  40  40  40  40  40  40  40  113 113 113 49  49  49  40  40  40  40  40  40  73  73  73  169 169 169 40  40  40  40  40  40  40  40  40  40  40  40  40  40  40  86  86  86  255 255 255 255 255 255 255 255 255 255 255 255 100 100 100 40  40  40  40  40  40  40  40  40  40  40  40  123 123 123 222 222 222 46  46  46  40  40  40  40  40  40  40  40  40  40  40  40  40  40  40  91  91  91  224 224 224 110 110 110 255 255 255 255 255 255 255 255 255 
255 255 255 255 255 255 197 197 197 40  40  40  40  40  40  40  40  40  40  40  40  231 231 231 255 255 255 129 129 129 40  40  40  40  40  40  107 107 107 40  40  40  40  40  40  46  46  46  255 255 255 170 170 170 45  45  45  40  40  40  43  43  43  166 166 166 255 255 255 255 255 255 255 255 255 252 252 252 97  97  97  40  40  40  40  40  40  107 107 107 40  40  40  40  40  40  161 161 161 177 177 177 44  44  44  40  40  40  99  99  99  47  47  47  40  40  40  40  40  40  159 159 159 40  40  40  40  40  40  40  40  40  121 121 121 40  40  40  40  40  40  40  40  40  113 113 113 49  49  49  40  40  40  40  40  40  73  73  73  255 255 255 149 149 149 43  43  43  40  40  40  40  40  40  46  46  46  140 140 140 255 255 255 255 255 255 255 255 255 255 255 255 100 100 100 40  40  40  40  40  40  40  40  40  40  40  40  123 123 123 255 255 255 220 220 220 105 105 105 44  44  44  40  40  40  61  61  61  136 136 136 236 236 236 224 224 224 110 110 110 255 255 255 255 255 255 255 255 255 
255 255 255 255 255 255 255 255 255 255 255 255 255 255 255 255 255 255 255 255 255 255 255 255 255 255 255 255 255 255 227 227 227 211 211 211 255 255 255 255 255 255 255 255 255 255 255 255 255 255 255 255 255 255 244 244 244 211 211 211 248 248 248 255 255 255 255 255 255 255 255 255 255 255 255 255 255 255 172 172 172 160 160 160 166 166 166 109 109 109 40  40  40  40  40  40  188 188 188 255 255 255 240 240 240 202 202 202 252 252 252 255 255 255 255 255 255 255 255 255 255 255 255 255 255 255 255 255 255 255 255 255 255 255 255 255 255 255 255 255 255 255 255 255 255 255 255 255 255 255 255 255 255 255 255 255 255 255 255 255 255 255 255 255 255 247 247 247 210 210 210 202 202 202 247 247 247 255 255 255 255 255 255 255 255 255 255 255 255 255 255 255 255 255 255 255 255 255 255 255 255 255 255 255 255 255 255 255 255 255 255 255 255 255 255 255 255 255 255 247 247 247 214 214 214 254 254 254 255 255 255 255 255 255 224 224 224 110 110 110 255 255 255 255 255 255 255 255 255 
255 255 255 255 255 255 255 255 255 255 255 255 255 255 255 255 255 255 255 255 255 255 255 255 255 255 255 255 255 255 255 255 255 255 255 255 255 255 255 255 255 255 255 255 255 255 255 255 255 255 255 255 255 255 255 255 255 255 255 255 255 255 255 255 255 255 255 255 255 255 255 255 255 255 255 255 255 255 63  63  63  40  40  40  40  40  40  40  40  40  40  40  40  66  66  66  247 247 247 255 255 255 255 255 255 255 255 255 255 255 255 255 255 255 255 255 255 255 255 255 255 255 255 255 255 255 255 255 255 255 255 255 255 255 255 255 255 255 255 255 255 255 255 255 255 255 255 255 255 255 255 255 255 255 255 255 255 255 255 255 255 255 255 255 255 255 255 255 255 255 255 255 255 255 255 255 255 255 255 255 255 255 255 255 255 255 255 255 255 255 255 255 255 255 255 255 255 255 255 255 255 255 255 255 255 255 255 255 255 255 255 255 255 255 255 255 255 255 255 255 255 255 255 255 255 255 255 255 255 255 255 255 255 255 224 224 224 110 110 110 255 255 255 255 255 255 255 255 255 
255 255 255 255 255 255 255 255 255 255 255 255 255 255 255 255 255 255 255 255 255 255 255 255 255 255 255 255 255 255 255 255 255 255 255 255 255 255 255 255 255 255 255 255 255 255 255 255 255 255 255 255 255 255 255 255 255 255 255 255 255 255 255 255 255 255 255 255 255 255 255 255 255 255 255 255 255 255 124 124 124 93  93  93  93  93  93  111 111 111 154 154 154 240 240 240 255 255 255 255 255 255 255 255 255 255 255 255 255 255 255 255 255 255 255 255 255 255 255 255 255 255 255 255 255 255 255 255 255 255 255 255 255 255 255 255 255 255 255 255 255 255 255 255 255 255 255 255 255 255 255 255 255 255 255 255 255 255 255 255 255 255 255 255 255 255 255 255 255 255 255 255 255 255 255 255 255 255 255 255 255 255 255 255 255 255 255 255 255 255 255 255 255 255 255 255 255 255 255 255 255 255 255 255 255 255 255 255 255 255 255 255 255 255 255 255 255 255 255 255 255 255 255 255 255 255 255 255 255 255 255 255 255 255 224 224 224 110 110 110 255 255 255 255 255 255 255 255 255 
255 255 255 255 255 255 255 255 255 255 255 255 255 255 255 255 255 255 255 255 255 255 255 255 255 255 255 255 255 255 255 255 255 255 255 255 255 255 255 255 255 255 255 255 255 255 255 255 255 255 255 255 255 255 255 255 255 255 255 255 255 255 255 255 255 255 255 255 255 255 255 255 255 255 255 255 255 255 255 255 255 255 255 255 255 255 255 255 255 255 255 255 255 255 255 255 255 255 255 255 255 255 255 255 255 255 255 255 255 255 255 255 255 255 255 255 255 255 255 255 255 255 255 255 255 255 255 255 255 255 255 255 255 255 255 255 255 255 255 255 255 255 255 255 255 255 255 255 255 255 255 255 255 255 255 255 255 255 255 255 255 255 255 255 255 255 255 255 255 255 255 255 255 255 255 255 255 255 255 255 255 255 255 255 255 255 255 255 255 255 255 255 255 255 255 255 255 255 255 255 255 255 255 255 255 255 255 255 255 255 255 255 255 255 255 255 255 255 255 255 255 255 255 255 255 255 255 255 255 255 255 255 255 255 224 224 224 110 110 110 255 255 255 255 255 255 255 255 255 
255 255 255 255 255 255 255 255 255 255 255 255 255 255 255 255 255 255 255 255 255 255 255 255 255 255 255 255 255 255 255 255 255 255 255 255 255 255 255 255 255 255 255 255 255 255 255 255 255 255 255 255 255 255 255 255 255 255 255 255 255 255 255 255 255 255 255 255 255 255 255 255 255 255 255 255 255 255 255 255 255 255 255 255 255 255 255 255 255 255 255 255 255 255 255 255 255 255 255 255 255 255 255 255 255 255 255 255 255 255 255 255 255 255 255 255 255 255 255 255 255 255 255 255 255 255 255 255 255 255 255 255 255 255 255 255 255 255 255 255 255 255 255 255 255 255 255 255 255 255 255 255 255 255 255 255 255 255 255 255 255 255 255 255 255 255 255 255 255 255 255 255 255 255 255 255 255 255 255 255 255 255 255 255 255 255 255 255 255 255 255 255 255 255 255 255 255 255 255 255 255 255 255 255 255 255 255 255 255 255 255 255 255 255 255 255 255 255 255 255 255 255 255 255 255 255 255 255 255 255 255 255 255 255 224 224 224 192 192 192 255 255 255 255 255 255 255 255 255 
